X: 3369
T: Ben's Birthday
R: slide
M: 12/8
K: Gmajor
|:D|G2 B d2 B cBA A2 g|f2 d cBA e2 d cBA|
G2 B d2 B cBA A2 g|f2 d cBA G3 G2:|
|:A|B2 G D2 G B2 d g2 e|fed a2 g fed cBA|
B2 G D2 G Bcd g2 e|fed cBA G3- G2:|

